src/assets/filled/HeartSearch.svg

<svg width="24" height="24" viewBox="0 0 24 24"  xmlns="http://www.w3.org/2000/svg">
<path d="M21.74 20.5102L20.88 19.6502C21.33 18.9702 21.59 18.1602 21.59 17.2902C21.59 14.9202 19.67 12.9902 17.29 12.9902C14.91 12.9902 13 14.9202 13 17.3002C13 19.6802 14.92 21.6002 17.3 21.6002C18.17 21.6002 18.98 21.3402 19.66 20.8902L20.52 21.7502C20.69 21.9202 20.91 22.0102 21.14 22.0102C21.37 22.0102 21.59 21.9202 21.76 21.7502C22.09 21.4002 22.09 20.8502 21.74 20.5102Z" />
<path d="M22 8.72965C22 9.91965 21.81 11.0196 21.48 12.0396C21.42 12.2496 21.17 12.3096 20.99 12.1796C19.9 11.3696 18.57 10.9396 17.2 10.9396C13.73 10.9396 10.9 13.7696 10.9 17.2396C10.9 18.3196 11.18 19.3796 11.71 20.3196C11.87 20.5996 11.68 20.9597 11.38 20.8496C8.97 20.0296 4.1 17.0396 2.52 12.0396C2.19 11.0196 2 9.91965 2 8.72965C2 5.63965 4.49 3.13965 7.56 3.13965C9.37 3.13965 10.99 4.01965 12 5.36965C13.01 4.01965 14.63 3.13965 16.44 3.13965C19.51 3.13965 22 5.63965 22 8.72965Z" />
</svg>

<?xml version="1.0" encoding="UTF-8"?>
<svg width="24" height="24" viewBox="0 0 24 24" xmlns="http://www.w3.org/2000/svg">
 <path d="m21.74 20.51-0.86-0.86c0.45-0.68 0.71-1.49 0.71-2.36 0-2.37-1.92-4.3-4.3-4.3s-4.29 1.93-4.29 4.31 1.92 4.3 4.3 4.3c0.87 0 1.68-0.26 2.36-0.71l0.86 0.86c0.17 0.17 0.39 0.26 0.62 0.26s0.45-0.09 0.62-0.26c0.33-0.35 0.33-0.9-0.02-1.24z"/>
 <path d="m22 8.7296c0 1.19-0.19 2.29-0.52 3.31-0.06 0.21-0.31 0.27-0.49 0.14-1.09-0.81-2.42-1.24-3.79-1.24-3.47 0-6.3 2.83-6.3 6.3 0 1.08 0.28 2.14 0.81 3.08 0.16 0.28-0.03 0.6401-0.33 0.53-2.41-0.82-7.28-3.81-8.86-8.81-0.33-1.02-0.52-2.12-0.52-3.31 0-3.09 2.49-5.59 5.56-5.59 1.81 0 3.43 0.88 4.44 2.23 1.01-1.35 2.63-2.23 4.44-2.23 3.07 0 5.56 2.5 5.56 5.59z"/>
</svg>
